X: 1
T: An dro #8    [Am]
O: trad. Brittany
R: an dro
N: Sometimes named for Saint Patrick
S: handout at NEFFA 2016 from Mark Vidor p.6 #1, from a tablature by Y.F. Perroches
Z: 2016 John Chambers <jc:trillian.mit.edu>
M: 4/4
L: 1/16
K: Am
|:\
"Am"ABcB A2e2 c2A2 "G"B2e2 |\
[1 dedc "F"B2A2 c2A2 "Em"B4 :|\
[2 dedB "F"c2A2 cA"G"BG "Am"A4 |
|:\
"Am"ABcd "C"e2ee "G"d2g2 "Am"e2c2 |\
[1 ABce "Dm"d3e dedc "Em"B4 :|\
[2 ABce "Dm"d3B "F"cA"G"BG "Am"A4 |]
